icons/linear-ele-drink-milk-tea.svg

<svg xmlns="http://www.w3.org/2000/svg" width="32px" height="32px" viewBox="0 0 32 32" version="1.1">
    <title>linear-ele-drink-milk-tea</title>
    <g id="linear-ele-drink-milk-tea" stroke-width="1" fill-rule="evenodd">
        <path d="M20,1 C20.5522847,1 21,1.44771525 21,2 C21,2.55228475 20.5522847,3 20,3 L16,3 C15.4477153,3 15,3.44771525 15,4 L15,5 L25,5 C26.6568542,5 28,6.34314575 28,8 C28,9.51047803 26.8836938,10.7602288 25.4310734,10.9692601 L23.9971993,30.0747899 C23.9580638,30.5965961 23.5232717,31 23,31 L9,31 C8.47672832,31 8.04193615,30.5965961 8.00280069,30.0747899 L6.56892665,10.9692601 C5.11630625,10.7602288 4,9.51047803 4,8 C4,6.34314575 5.34314575,5 7,5 L13,5 L13,4 C13,2.34314575 14.3431458,1 16,1 L20,1 Z M23.421,11 L8.578,11 L9.928,29 L22.071,29 L22.2380583,26.7763845 C19.2249717,25.9951643 17,23.2574171 17,20 C17,16.3811384 19.7461337,13.4036708 23.2682058,13.0377924 L23.421,11 Z M19,20 C19,22.1986094 20.4190639,24.0657787 22.3912398,24.7355561 L23.1151058,15.0780609 C20.775763,15.4958333 19,17.5405408 19,20 Z M25,7 L7,7 C6.44771525,7 6,7.44771525 6,8 C6,8.55228475 6.44771525,9 7,9 L25,9 C25.5522847,9 26,8.55228475 26,8 C26,7.44771525 25.5522847,7 25,7 Z" id="&#24418;&#29366;" fill-rule="nonzero" />
    </g>
</svg>

<svg xmlns="http://www.w3.org/2000/svg" viewBox="0 0 32 32"><path fill="currentColor" d="M20 1a1 1 0 0 1 0 2h-4a1 1 0 0 0-1 1v1h10a3 3 0 0 1 .431 5.97l-1.434 19.105A1 1 0 0 1 23 31H9a1 1 0 0 1-.997-.925L6.569 10.969A3 3 0 0 1 7 5h6V4a3 3 0 0 1 3-3zm3.421 10H8.578l1.35 18h12.143l.167-2.224a7 7 0 0 1 1.03-13.739zM19 20a5.002 5.002 0 0 0 3.391 4.736l.724-9.658A5.001 5.001 0 0 0 19 20m6-13H7a1 1 0 1 0 0 2h18a1 1 0 0 0 0-2"/></svg>
